X: 61
T: Tiao cai
%%abc-version 2.0
%%abcx-abcm2ps-target-version 5.9.1 (29 Sep 2008)
%%abc-creator hum2abc beta
%%abcx-conversion-date 2013/10/02 07:52:29
%%abc-edited-by Helmut Schaffrath
%%humdrum-veritas 59634216
%%humdrum-veritas-data 3516517774
%%continueall 1
%%barnumbers 0
L: 1/8
M: 2/4
K: F
c2c d [I:setbarnb 1]| 
c2G A | 
c3d | 
c4 | 
f2A G | 
F3G | 
F4 | 
G2c2 | 
G A G F | 
G A G F | 
E3F | 
G3F | 
E F G A | 
G A G D | 
C4 |]  



